assets/svg/large-building.svg

<svg xmlns="http://www.w3.org/2000/svg" viewBox="0 0 500 500"><path d="M257.6 68.2h15.2v136.4H288V68.2h15v197h15.2v-197h15.2v197h15.2v-197h15.2v197H379v-197h15.2v197h15.2V53h-167v151.5h15.2V68.2zm-37.9 60.6h-30.3V98.5h-83.3v60.6H90.9v45.5h128.8v-75.8zm37.9 295.4v-53h68.2v53h106.1V280.3h-144v-60.6H68.2v204.5h189.4zm98.5-128.8h22.7v22.7h-22.7v-22.7zm37.8 0h22.7v22.7h-22.7v-22.7zm-75.7 0h22.7v22.7h-22.7v-22.7zm-37.9 0H303v22.7h-22.7v-22.7zm-37.9 0h22.7v22.7h-22.7v-22.7zm-37.9 0h22.7v22.7h-22.7v-22.7zm-37.8 0h22.7v22.7h-22.7v-22.7zm189.4 37.9h22.7V356h-22.7v-22.7zm37.8 0h22.7V356h-22.7v-22.7zm-37.8 37.9h22.7v22.7h-22.7v-22.7zm37.8 0h22.7v22.7h-22.7v-22.7zm-75.7-37.9h22.7V356h-22.7v-22.7zm-37.9 0H303V356h-22.7v-22.7zm-37.9 0h22.7V356h-22.7v-22.7zm-37.9 0h22.7V356h-22.7v-22.7zm-37.8 0h22.7V356h-22.7v-22.7zm37.8 37.9h22.7v22.7h-22.7v-22.7zm-37.8 0h22.7v22.7h-22.7v-22.7zm-30.3-83.3H90.9v-45.5h45.5v45.5zM500 485c0 8.3-5.9 15-13.1 15H13.1C5.9 500 0 493.3 0 485c0-8.2 5.9-15 13.1-15h473.8c7.2.1 13.1 6.8 13.1 15z" fill="#0088ce"/></svg>

<?xml version="1.0" encoding="utf-8"?>
<!-- Generator: Adobe Illustrator 21.0.2, SVG Export Plug-In . SVG Version: 6.00 Build 0)  -->
<svg version="1.1" id="DESKTOP" xmlns="http://www.w3.org/2000/svg" xmlns:xlink="http://www.w3.org/1999/xlink" x="0px" y="0px"
	 viewBox="0 0 500 500" style="enable-background:new 0 0 500 500;" xml:space="preserve">
<style type="text/css">
	.st0{fill:#0088CE;}
</style>
<path class="st0" d="M257.6,68.2h15.2v136.4H288V68.2h15v197h15.2v-197h15.2v197h15.2v-197h15.2v197H379v-197h15.2v197h15.2V53h-167
	v151.5h15.2V68.2z M219.7,128.8h-30.3V98.5h-83.3v60.6H90.9v45.5h128.8L219.7,128.8L219.7,128.8z M257.6,424.2v-53h68.2v53h106.1
	V280.3h-144v-60.6H68.2v204.5L257.6,424.2L257.6,424.2z M356.1,295.4h22.7v22.7h-22.7V295.4z M393.9,295.4h22.7v22.7h-22.7V295.4z
	 M318.2,295.4h22.7v22.7h-22.7V295.4z M280.3,295.4H303v22.7h-22.7V295.4z M242.4,295.4h22.7v22.7h-22.7L242.4,295.4L242.4,295.4z
	 M204.5,295.4h22.7v22.7h-22.7V295.4z M166.7,295.4h22.7v22.7h-22.7V295.4z M356.1,333.3h22.7V356h-22.7V333.3z M393.9,333.3h22.7
	V356h-22.7V333.3z M356.1,371.2h22.7v22.7h-22.7V371.2z M393.9,371.2h22.7v22.7h-22.7V371.2z M318.2,333.3h22.7V356h-22.7V333.3z
	 M280.3,333.3H303V356h-22.7V333.3z M242.4,333.3h22.7V356h-22.7L242.4,333.3L242.4,333.3z M204.5,333.3h22.7V356h-22.7V333.3z
	 M166.7,333.3h22.7V356h-22.7V333.3z M204.5,371.2h22.7v22.7h-22.7V371.2z M166.7,371.2h22.7v22.7h-22.7V371.2z M136.4,287.9H90.9
	v-45.5h45.5V287.9z M500,485c0,8.3-5.9,15-13.1,15H13.1C5.9,500,0,493.3,0,485c0-8.2,5.9-15,13.1-15h473.8
	C494.1,470.1,500,476.8,500,485z"/>
</svg>
